<?xml version="1.0" encoding="UTF-8"?>
<map version="1.10" tiledversion="1.12.2" orientation="orthogonal" renderorder="right-down" width="30" height="20" tilewidth="16" tileheight="16" infinite="0" nextlayerid="7" nextobjectid="2">
 <tileset firstgid="1" source="kenney-monochrome-rpg.tsx"/>
 <layer id="1" name="Bg" width="30" height="20">
  <data encoding="csv">
52,52,35,18,35,1,18,1,1,35,1,52,18,52,35,52,18,35,18,52,52,52,1,1,35,35,1,52,35,52,
35,18,18,1,1,35,1,52,1,35,1,52,35,1,1,1,18,52,35,52,35,18,18,1,1,1,1,1,35,18,
52,18,52,35,52,52,18,18,52,52,35,18,18,18,18,1,35,35,1,18,1,35,52,35,35,18,18,35,52,35,
35,35,35,52,1,35,35,35,35,1,1,52,35,52,35,35,35,52,52,35,18,18,1,35,35,35,1,52,1,18,
18,18,35,18,18,52,1,35,1,1,1,52,35,1,35,35,1,35,1,52,52,52,18,18,35,35,52,52,18,18,
35,18,35,1,1,1,35,35,1,52,1,1,52,1,1,1,52,18,18,18,52,52,35,18,35,1,1,18,18,35,
1,35,35,35,35,35,52,18,1,18,35,52,18,1,35,18,18,52,1,18,18,18,52,18,52,52,52,35,52,52,
18,18,18,1,1,18,35,35,1,1,52,35,35,1,18,35,18,18,35,52,1,52,1,52,35,35,35,52,1,52,
35,35,18,1,35,18,1,35,52,35,52,1,1,52,1,35,18,1,35,1,35,35,18,52,1,18,1,52,52,35,
1,18,52,52,1,35,52,35,52,18,52,35,18,1,52,1,18,52,1,35,1,1,35,1,35,18,35,52,18,18,
35,18,52,35,18,18,18,35,35,35,18,1,1,35,52,1,52,18,35,1,52,1,18,35,52,1,35,35,1,52,
1,18,18,35,35,1,35,52,18,1,1,52,1,35,18,18,18,18,35,18,1,1,1,18,18,52,52,1,18,35,
52,1,18,1,52,18,52,18,52,35,1,18,52,1,1,18,52,1,35,18,1,52,52,18,18,52,1,1,52,18,
52,18,18,52,18,35,52,1,52,35,35,35,18,35,1,18,18,35,52,35,52,35,52,1,35,18,52,52,35,1,
35,35,18,18,1,35,35,52,52,35,35,35,52,35,52,35,35,1,35,18,35,35,52,35,52,35,35,52,35,35,
35,1,18,52,18,52,52,18,1,1,18,18,52,18,18,35,18,35,52,18,52,18,18,1,52,35,1,52,35,1,
1,18,52,35,1,52,1,1,18,1,18,1,18,18,1,52,35,35,35,35,1,52,18,1,18,35,18,18,1,18,
18,18,1,52,1,18,52,18,35,52,1,35,1,52,52,18,35,1,1,1,52,1,18,35,1,1,35,35,52,1,
18,1,35,18,52,35,1,35,1,52,1,18,35,35,1,1,1,35,18,35,1,35,1,18,52,35,35,35,35,1,
18,52,1,1,52,1,35,18,35,35,35,35,35,1,18,35,52,35,35,1,1,1,52,52,35,18,52,52,1,52
</data>
 </layer>
 <layer id="3" name="NoninteractableSolids" width="30" height="20">
  <data encoding="csv">
29,29,29,29,29,29,29,29,29,29,30,19,20,20,20,20,20,20,20,21,14,14,14,14,14,14,14,14,15,15,
29,29,29,29,29,29,29,29,29,29,30,36,37,37,37,37,37,37,37,38,14,0,14,15,15,14,15,15,14,15,
29,29,29,29,29,29,29,29,29,29,30,0,0,0,0,0,0,0,0,0,0,0,0,15,15,15,14,15,15,14,
29,29,29,29,29,29,29,47,46,46,0,0,0,0,0,0,0,0,0,0,0,0,0,15,15,14,14,15,14,15,
29,0,46,46,45,29,29,30,0,0,0,0,0,0,0,0,0,0,0,0,0,0,0,0,0,14,15,14,14,14,
47,0,0,0,0,46,46,0,0,0,0,0,0,0,0,0,0,0,0,0,0,0,0,0,0,0,0,14,15,15,
68,0,0,0,0,0,0,0,0,0,0,0,0,0,0,0,0,0,0,0,0,0,0,0,0,0,0,0,14,15,
17,0,0,0,0,0,0,0,0,0,0,0,0,0,0,0,0,0,0,0,0,0,0,0,0,0,0,0,15,15,
17,0,0,0,0,0,0,0,0,0,0,0,0,81,0,0,0,0,0,0,0,0,0,0,0,0,0,0,0,14,
17,0,0,0,0,0,0,0,0,0,0,0,97,98,99,0,0,0,0,0,0,0,0,0,0,0,0,0,0,15,
17,0,0,0,0,0,0,0,0,0,0,0,114,115,116,0,0,0,0,0,0,0,0,0,0,0,0,0,0,16,
17,17,0,0,0,0,0,0,0,0,0,0,131,132,133,0,0,0,0,0,0,0,0,0,0,0,0,0,0,16,
17,17,0,0,0,0,0,0,0,0,0,0,2684354654,0,1610612830,0,0,0,0,0,0,0,0,0,0,0,0,0,0,16,
17,17,0,0,0,0,0,0,0,0,0,0,93,0,95,0,0,0,0,0,0,0,0,0,0,0,0,0,0,16,
17,17,0,0,0,0,0,0,0,0,0,0,0,0,0,0,0,0,0,0,0,0,0,0,0,0,0,0,0,16,
17,17,0,0,0,0,0,0,0,0,0,0,0,0,0,0,0,0,0,0,0,0,0,0,0,0,0,0,16,16,
17,17,17,0,0,0,0,0,0,0,0,0,0,0,0,0,0,0,0,0,0,0,0,0,0,0,0,0,16,31,
17,17,17,17,0,0,0,0,0,0,0,0,0,0,0,0,0,0,0,0,0,0,0,0,0,0,0,0,31,16,
17,17,17,17,17,17,17,0,0,0,0,0,0,0,0,0,0,0,0,0,0,0,0,0,31,16,16,16,16,16,
17,17,17,17,17,17,17,17,17,17,31,16,31,31,16,16,31,16,16,31,31,16,31,16,16,16,31,16,31,16
</data>
 </layer>
 <layer id="5" name="Entrances" width="30" height="20">
  <data encoding="csv">
0,0,0,0,0,0,0,0,0,0,0,0,0,0,0,0,0,0,0,0,0,0,0,0,0,0,0,0,0,0,
0,0,0,0,0,0,0,0,0,0,0,0,0,0,0,0,0,53,0,0,0,0,0,0,0,0,0,0,0,0,
0,0,0,0,0,0,0,0,0,0,0,0,0,0,0,0,0,0,0,0,0,0,0,0,0,0,0,0,0,0,
0,0,0,0,0,0,0,0,0,0,0,0,0,0,0,0,0,0,0,0,0,0,0,0,0,0,0,0,0,0,
0,0,0,0,0,0,0,0,0,0,0,0,0,0,0,0,0,0,0,0,0,0,0,0,0,0,0,0,0,0,
0,0,0,0,0,0,0,0,0,0,0,0,0,0,0,0,0,0,0,0,51,0,0,0,0,0,0,0,0,0,
0,0,0,0,0,0,0,0,0,0,0,0,0,0,0,0,0,0,0,0,0,0,0,0,0,0,0,0,0,0,
0,0,0,0,0,0,0,0,0,0,0,0,0,0,0,0,0,0,0,0,0,0,0,0,0,0,0,0,0,0,
0,0,0,0,0,0,0,0,0,0,0,0,0,0,0,0,0,0,0,0,0,0,0,0,0,0,0,0,0,0,
0,0,0,0,0,0,0,0,0,0,0,0,0,0,0,0,0,0,0,0,0,0,0,0,0,0,0,0,0,0,
0,0,0,0,0,0,0,0,0,0,0,0,0,0,0,0,0,0,0,0,0,0,0,0,0,0,0,0,0,0,
0,0,0,0,0,0,0,0,0,0,0,0,0,0,0,0,0,0,0,0,0,0,0,0,0,0,0,0,0,0,
0,0,0,0,0,0,0,0,0,0,0,0,0,0,0,0,0,0,0,0,0,0,0,0,0,0,0,0,0,0,
0,0,0,0,0,0,0,0,0,0,0,0,0,110,0,0,0,0,0,0,0,0,0,0,0,0,0,0,0,0,
0,0,0,0,0,0,0,0,0,0,0,0,0,0,0,0,0,0,0,0,0,0,0,0,0,0,0,0,0,0,
0,0,0,0,0,0,0,0,0,0,0,0,0,0,0,0,0,0,0,0,0,0,0,0,0,0,0,0,0,0,
0,0,0,0,0,0,0,0,0,0,0,0,0,0,0,0,0,0,0,0,0,0,0,0,0,0,0,0,0,0,
0,0,0,0,0,0,0,0,0,0,0,0,0,0,0,0,0,0,0,0,0,0,0,0,0,0,0,0,0,0,
0,0,0,0,0,0,0,0,0,0,0,0,0,0,0,0,0,0,0,0,0,0,0,0,0,0,0,0,0,0,
0,0,0,0,0,0,0,0,0,0,0,0,0,0,0,0,0,0,0,0,0,0,0,0,0,0,0,0,0,0
</data>
 </layer>
 <objectgroup id="6" name="Signs">
  <object id="1" name="WestSign" type="Sign" x="0" y="96" width="16" height="16">
   <properties>
    <property name="Message" value="The time hasn't yet come for you to pass through here..."/>
   </properties>
  </object>
 </objectgroup>
</map>
